kora-light/actions/scalable/view-media-subtitles-hidden.svg

<svg xmlns="http://www.w3.org/2000/svg" style="fill-rule:evenodd;clip-rule:evenodd;stroke-linejoin:round;stroke-miterlimit:2" width="100%" height="100%" version="1.1" viewBox="0 0 16 16" xml:space="preserve">
 <defs>
  <style id="current-color-scheme" type="text/css">
   .ColorScheme-Text { color:#444444; } .ColorScheme-Highlight { color:#4285f4; } .ColorScheme-NeutralText { color:#ff9800; } .ColorScheme-PositiveText { color:#4caf50; } .ColorScheme-NegativeText { color:#f44336; }
  </style>
 </defs>
 <path style="fill:currentColor;fill-opacity:0.3" class="ColorScheme-Text" d="M2,3c-1,0 -1,1 -1,1l0,8c0,0 0,1 1,1l12,0c1,0 1,-1 1,-1l0,-8c0,0 0,-1 -1,-1l-12,0Zm1,7l1,0l0,1l-1,0l0,-1Zm7,0l3,0l0,1l-3,0l0,-1Zm-5,0l4,0l0,1l-4,0l0,-1Zm-2,-2l2,0l0,1l-2,0l0,-1Zm8,0l2,0l0,1l-2,0l0,-1Zm-5,0l4,0l0,1l-4,0l0,-1Z"/>
</svg>

<svg xmlns="http://www.w3.org/2000/svg" width="16" height="16" version="1.1">
 <defs>
  <style id="current-color-scheme" type="text/css">
   .ColorScheme-Text { color:#444444; } .ColorScheme-Highlight { color:#4285f4; }
  </style>
 </defs>
 <path style="fill:currentColor;opacity:0.3" class="ColorScheme-Text" d="M 2,3 C 1,3 1,4 1,4 V 12 C 1,12 1,13 2,13 H 14 C 15,13 15,12 15,12 V 4 C 15,4 15,3 14,3 Z M 3,8 H 5 V 9 H 3 Z M 6,8 H 10 V 9 H 6 Z M 11,8 H 13 V 9 H 11 Z M 3,10 H 4 V 11 H 3 Z M 5,10 H 9 V 11 H 5 Z M 10,10 H 13 V 11 H 10 Z"/>
</svg>
